X: 1743
T: Serpil Yağmur
C: Cevdet Çağla
O: Turkey
F: http://compmusic.upf.edu/node/140
N: hicazkar--sarki--duyek--serpil_yagmur--cevdet_cagla
N: makam= hicazkar
N: form= sarki
N: usul= duyek = 8/4
M: 8/4
L: 1/16
K: C _1/4B _7/8e _7/8A ^f
Q: 1/4=162
%%MIDI tuningsystem comma53
c2 g4 =a2 _b8  | =a2 c'2 _b2 a2 a8  | \
w:   |   | 
d2 f4 g2 =a8  | =a2 c'2 _b2 a2 g8  | \
w:   |   | 
z2 g2 f2 g2 a4 g2 f2  | 
w:   | 
f2 e2 d2 ^c2 e8  | z2 fe d2 c2 B8  | \
w:   |   | 
z2 dc B2 A2 G8  | z2 fe d2 c2 B8  | 
w:   |   | 
z2 dc B2 A2 G8  | c2 g4 =a2 _b4 z4  | \
w:   |   | 
c'2 _b2 =a2 g2 f4 a4  | d2 e2 d2 ^c2 e8  | 
w:   |   | 
f2 g2 =a2 ag g8  | f2 b2 a2 g2 a3g/f/ g3f/e/  | \
w:   |   | 
b3c' ba ag g8  | 
w:   | 
g2 c'4 ba (3g2a2b2 (3a2g2f2  | g2 gf ed ef g2 a2 gf e3/2d/  | 
w:   |   | 
c2 c2 g4 =a2 _b4 z4 c'2 b2 a2 g2 f4 a4 d2 e2 d2 ^c2 e8 f2 g2 a2 ag g8 f2 _1/4b2 _7/8a2 g2 a3g/f/ g3f/e/ b3c' ba ag g8 g2 c'4 ba (3g2a2b2 (3a2g2f2 g2 gf ed ef g8 g4 b3a a2 ag g2  | 
w:   | 
fe f2 g4 fg a4 z4 z2 f4 a2 g3f e3d c2 d2 ef ed d2 c2 _B2  | 
w:   | 
_A2 G2 e2 d2 c2 B2 _7/8A2 G2  | A2 B2 c2 BA AG G8 g2 c'4 ba (3g2a2b2 (3a2g2f2 g2 gf ed ef g8 g4 b3a a2 ag g2  | 
w:   |   | 
fe f2 g4 fg a4 z4 z2 f4 a2 g3f e3d c2 d2 ef ed d2 c2 _B2  | 
w:   | 
_A2 G2 e2 d2 c2 B2 _7/8A2 G2  | A2 B2 c2 BA AG G8 g2 c'4 ba (3g2a2b2 (3a2g2f2 g2 gf ed ef g3_b =ac'  | 
w:   |   | 
_b2 =a2 b4 a2 ba bc' d'4 c'2 b2 a2 d'2 c'b ag d2  | \
w:   | 
e2 f2 g2 =a2 _b2 c'2 d'2 c'b  | 
w:   | 
=ag ag gf f4 z4 g2  | b2 a2 g2 g3f e4 f2  | \
w:   |   | 
g2 a2 b2 ag g8  | 
w:   | 
g2 c'4 ba (3g2a2b2 (3a2g2f2  | g2 a2 gf ed ef g8 g4 b3a a2 ag g2  | 
w:   |   | 
fe f2 g4 fg a4 z4 z2 f4 a2 g3f e3d c2 d2 ef ed d2 c2 _B2  | 
w:   | 
_A2 G2 e2 d2 c2 B2 _7/8A2 G2  | A2 B2 c2 BA AG G8 |
w:   |   | 


